X:29
T:Tullagh Reel, The 
B:DMAC.15
C:file ID: dmac/29tull_r
Q:180
N:1:Very similar to "Paddy Ryan's Dream"
N:2:Substitutions: |E2| in m1 for |(3EEE|; |a2| in mm 5,7, 9 for |A2|
L:1/8
M:4/4
R:reel
K:Am
AEE2 cABG|EGDB, G,2 DB,|A,B,A,G, A,2 A,2|1 AcBG ABcB :|\
[2 AcBG ABcd |]
eaa2 age^f|gea^f gedB|Aaa2 age^f|gedB BA A2 |
eaa2 age^f|gea^f gedB|(3ABc BG Aaa^f|gedB cABG |]

